epam-assets/icon-sources/18/internal-logo/delivery.svg

<svg width="18" height="18" viewBox="0 0 18 18" fill="none" xmlns="http://www.w3.org/2000/svg">
<g id="18/internal-logo/delivery">
<g id="icon">
<path fill-rule="evenodd" clip-rule="evenodd" d="M2.5813 12.9376V2.25H8.28688V16.5L2.5813 12.9376ZM4.72089 4.38749V11.5125L6.14728 12.4031V4.38749H4.72089Z" fill="#6C6F80"/>
<path d="M9.71324 16.5V2.25H15.4188V6.70312L13.2792 7.41562V4.3875H11.8528V12.4031L13.2792 11.5125V9.55313L15.4188 8.6625V12.9376L9.71324 16.5Z" fill="#6C6F80"/>
</g>
</g>
</svg>

<svg xmlns="http://www.w3.org/2000/svg" width="18" height="18" fill="none" viewBox="0 0 18 18">
  <path fill="#6C6F80" fill-rule="evenodd" d="M2.581 12.938V2.25h5.706V16.5L2.58 12.938Zm2.14-8.55v7.124l1.426.891V4.387H4.721Z" clip-rule="evenodd"/>
  <path fill="#6C6F80" d="M9.713 16.5V2.25h5.706v4.453l-2.14.713V4.387h-1.426v8.016l1.426-.89v-1.96l2.14-.89v4.275L9.713 16.5Z"/>
</svg>
